src/assets/images/remove-icon.svg

<svg fill="none" height="24" viewBox="0 0 24 24" width="24" xmlns="http://www.w3.org/2000/svg" xmlns:xlink="http://www.w3.org/1999/xlink"><clipPath id="a"><path d="m0 0h24v24h-24z"/></clipPath><clipPath id="b"><path d="m0 0h24v24h-24z"/></clipPath><clipPath id="c"><path d="m0 0h24v24h-24z"/></clipPath><g clip-path="url(#a)"><g clip-path="url(#b)"><g clip-path="url(#c)"><path d="m11.9997 10.5828 4.95-4.94999 1.414 1.414-4.95 4.94999 4.95 4.95-1.414 1.414-4.95-4.95-4.94996 4.95-1.414-1.414 4.94996-4.95-4.94996-4.94999 1.414-1.414z" fill="#fff"/></g></g></g></svg>

<svg width="24" height="24" viewBox="0 0 24 24" fill="none" xmlns="http://www.w3.org/2000/svg">
<g clip-path="url(#clip0_4802_30370)">
<g clip-path="url(#clip1_4802_30370)">
<g clip-path="url(#clip2_4802_30370)">
<path d="M11.9997 10.5828L16.9497 5.63281L18.3637 7.04681L13.4137 11.9968L18.3637 16.9468L16.9497 18.3608L11.9997 13.4108L7.04974 18.3608L5.63574 16.9468L10.5857 11.9968L5.63574 7.04681L7.04974 5.63281L11.9997 10.5828Z" fill="white"/>
</g>
</g>
</g>
<defs>
<clipPath id="clip0_4802_30370">
<rect width="24" height="24" fill="white"/>
</clipPath>
<clipPath id="clip1_4802_30370">
<rect width="24" height="24" fill="white"/>
</clipPath>
<clipPath id="clip2_4802_30370">
<rect width="24" height="24" fill="white"/>
</clipPath>
</defs>
</svg>
